src/img/ui/promocode.svg

<svg width="21" height="16" viewBox="0 0 21 16" fill="none" xmlns="http://www.w3.org/2000/svg">
<path d="M0.45664 0.96875C0.235726 0.96875 0.0566406 1.14784 0.0566406 1.36875V14.6313C0.0566406 14.8522 0.235727 15.0312 0.456641 15.0312H14.9039C15.0119 15.0312 15.1152 14.9876 15.1905 14.9102L19.999 9.96979C20.0717 9.89511 20.1124 9.79501 20.1124 9.6908V1.36875C20.1124 1.14784 19.9333 0.96875 19.7124 0.96875H0.45664ZM16.0984 12.2949C15.8481 12.5521 15.4118 12.3748 15.4118 12.0159V10.7438C15.4118 10.5228 15.5909 10.3438 15.8118 10.3438H17.0499C17.4037 10.3438 17.5833 10.7692 17.3366 11.0227L16.0984 12.2949ZM18.9372 8.77187C18.9372 8.99279 18.7581 9.17188 18.5372 9.17188H14.6367C14.4157 9.17188 14.2367 9.35096 14.2367 9.57187V13.4594C14.2367 13.6803 14.0576 13.8594 13.8367 13.8594H1.63178C1.41087 13.8594 1.23178 13.6803 1.23178 13.4594V2.54062C1.23178 2.31971 1.41087 2.14062 1.63178 2.14062H18.5372C18.7581 2.14062 18.9372 2.31971 18.9372 2.54062V8.77187Z" fill="#868686"/>
<path d="M9.3462 4.93838L4.03714 10.2327C3.88071 10.3887 3.88071 10.6416 4.03714 10.7976L4.30161 11.0613C4.45804 11.2173 4.71165 11.2173 4.86808 11.0613L10.1771 5.76701C10.3336 5.61102 10.3336 5.35811 10.1771 5.20212L9.91266 4.93838C9.75624 4.78239 9.50262 4.78239 9.3462 4.93838Z" fill="#868686"/>
<path d="M9.45607 8.58594C8.48411 8.58594 7.69336 9.37449 7.69336 10.3438C7.69336 11.313 8.48411 12.1016 9.45607 12.1016C10.428 12.1016 11.2188 11.313 11.2188 10.3438C11.2188 9.37449 10.428 8.58594 9.45607 8.58594ZM9.45607 10.9297C9.13208 10.9297 8.8685 10.6668 8.8685 10.3438C8.8685 10.0207 9.13208 9.75781 9.45607 9.75781C9.78005 9.75781 10.0436 10.0207 10.0436 10.3438C10.0436 10.6668 9.78005 10.9297 9.45607 10.9297Z" fill="#868686"/>
<path d="M4.75685 3.89844C3.78489 3.89844 2.99414 4.68699 2.99414 5.65625C2.99414 6.62551 3.78489 7.41406 4.75685 7.41406C5.72881 7.41406 6.51956 6.62551 6.51956 5.65625C6.51956 4.68699 5.72881 3.89844 4.75685 3.89844ZM4.75685 6.24219C4.43286 6.24219 4.16928 5.97934 4.16928 5.65625C4.16928 5.33316 4.43286 5.07031 4.75685 5.07031C5.08084 5.07031 5.34442 5.33316 5.34442 5.65625C5.34442 5.97934 5.08084 6.24219 4.75685 6.24219Z" fill="#868686"/>
<path d="M16.7734 6.24219H12.7945C12.5736 6.24219 12.3945 6.42127 12.3945 6.64219V7.01406C12.3945 7.23498 12.5736 7.41406 12.7945 7.41406H16.7734C16.9943 7.41406 17.1734 7.23498 17.1734 7.01406V6.64219C17.1734 6.42127 16.9943 6.24219 16.7734 6.24219Z" fill="#868686"/>
<path d="M16.7734 3.89844H12.7945C12.5736 3.89844 12.3945 4.07752 12.3945 4.29844V4.67031C12.3945 4.89123 12.5736 5.07031 12.7945 5.07031H16.7734C16.9943 5.07031 17.1734 4.89123 17.1734 4.67031V4.29844C17.1734 4.07752 16.9943 3.89844 16.7734 3.89844Z" fill="#868686"/>
</svg>

<svg width="21" height="16" fill="none" xmlns="http://www.w3.org/2000/svg"><path d="M.457.969a.4.4 0 00-.4.4V14.63c0 .221.179.4.4.4h14.447a.4.4 0 00.287-.12l4.808-4.941a.4.4 0 00.113-.28V1.37a.4.4 0 00-.4-.4H.457zm15.641 11.326a.4.4 0 01-.686-.28v-1.271a.4.4 0 01.4-.4h1.238a.4.4 0 01.287.679l-1.239 1.272zm2.84-3.523a.4.4 0 01-.4.4h-3.901a.4.4 0 00-.4.4v3.887a.4.4 0 01-.4.4H1.632a.4.4 0 01-.4-.4V2.541c0-.221.179-.4.4-.4h16.905c.221 0 .4.179.4.4v6.23z" fill="#868686"/><path d="M9.346 4.938l-5.309 5.295a.399.399 0 000 .565l.265.263c.156.156.41.156.566 0l5.31-5.294a.399.399 0 000-.565l-.265-.264a.401.401 0 00-.567 0zM9.456 8.586c-.972 0-1.763.788-1.763 1.758a1.762 1.762 0 003.526 0c0-.97-.791-1.758-1.763-1.758zm0 2.344a.587.587 0 01-.588-.586.587.587 0 011.176 0 .587.587 0 01-.588.586zM4.757 3.898c-.972 0-1.763.789-1.763 1.758a1.762 1.762 0 003.526 0c0-.969-.791-1.758-1.763-1.758zm0 2.344a.587.587 0 01-.588-.586.587.587 0 011.175 0 .587.587 0 01-.587.586zM16.773 6.242h-3.979a.4.4 0 00-.4.4v.372c0 .221.18.4.4.4h3.98a.4.4 0 00.4-.4v-.372a.4.4 0 00-.4-.4zM16.773 3.898h-3.979a.4.4 0 00-.4.4v.372c0 .221.18.4.4.4h3.98a.4.4 0 00.4-.4v-.372a.4.4 0 00-.4-.4z" fill="#868686"/></svg>
